src/elections.svg

<svg viewBox="0 0 49 48" fill="none" xmlns="http://www.w3.org/2000/svg"><path d="M35.0264 10.5419C35.0264 13.3378 33.9158 16.0192 31.9388 17.9962C29.9618 19.9732 27.2804 21.0839 24.4845 21.0839C21.6886 21.0839 19.0072 19.9732 17.0302 17.9962C15.0532 16.0192 13.9426 13.3378 13.9426 10.5419C13.9426 7.74604 15.0532 5.06466 17.0302 3.08766C19.0072 1.11066 21.6886 0 24.4845 0C27.2804 0 29.9618 1.11066 31.9388 3.08766C33.9158 5.06466 35.0264 7.74604 35.0264 10.5419Z" fill="#A7A9AC"/><path d="M49 20.6819C49 23.4778 47.8893 26.1592 45.9123 28.1362C43.9353 30.1132 41.254 31.2239 38.4581 31.2239C35.6622 31.2239 32.9808 30.1132 31.0038 28.1362C29.0268 26.1592 27.9161 23.4778 27.9161 20.6819C27.9161 17.8861 29.0268 15.2047 31.0038 13.2277C32.9808 11.2507 35.6622 10.14 38.4581 10.14C41.254 10.14 43.9353 11.2507 45.9123 13.2277C47.8893 15.2047 49 17.8861 49 20.6819Z" fill="#009FDF"/><path d="M21.0839 20.6819C21.0839 23.4778 19.9732 26.1592 17.9962 28.1362C16.0192 30.1132 13.3378 31.2239 10.5419 31.2239C7.74604 31.2239 5.06466 30.1132 3.08766 28.1362C1.11066 26.1592 0 23.4778 0 20.6819C0 17.8861 1.11066 15.2047 3.08766 13.2277C5.06466 11.2507 7.74604 10.14 10.5419 10.14C13.3378 10.14 16.0192 11.2507 17.9962 13.2277C19.9732 15.2047 21.0839 17.8861 21.0839 20.6819Z" fill="#ED1C24"/><path d="M26.4322 37.0978C26.4322 39.8978 25.3199 42.5831 23.34 44.563C21.3601 46.5429 18.6748 47.6552 15.8748 47.6552C13.0748 47.6552 10.3895 46.5429 8.40963 44.563C6.42974 42.5831 5.31744 39.8978 5.31744 37.0978C5.31744 34.2978 6.42974 31.6125 8.40963 29.6326C10.3895 27.6527 13.0748 26.5404 15.8748 26.5404C18.6748 26.5404 21.3601 27.6527 23.34 29.6326C25.3199 31.6125 26.4322 34.2978 26.4322 37.0978Z" fill="#4978BC"/><path d="M43.6825 37.0978C43.6825 39.8937 42.5718 42.5751 40.5948 44.552C38.6178 46.529 35.9365 47.6397 33.1406 47.6397C30.3447 47.6397 27.6633 46.529 25.6863 44.552C23.7093 42.5751 22.5986 39.8937 22.5986 37.0978C22.5986 34.3019 23.7093 31.6205 25.6863 29.6435C27.6633 27.6665 30.3447 26.5558 33.1406 26.5558C35.9365 26.5558 38.6178 27.6665 40.5948 29.6435C42.5718 31.6205 43.6825 34.3019 43.6825 37.0978Z" fill="#DA202C"/><path d="M33.0789 26.5249C36.5413 26.5249 39.6019 28.1634 41.5186 30.7293L40.7766 30.9148C38.7957 31.3628 36.7277 31.2307 34.8199 30.5345C32.912 29.8382 31.245 28.6072 30.0183 26.9886C31.0076 26.6795 32.0278 26.5249 33.1098 26.5249H33.0789Z" fill="#001326"/><path d="M15.8593 26.5249C16.9104 26.5249 17.9615 26.6794 18.9508 26.9886L18.5489 27.4832C17.2165 29.0559 15.4511 30.2022 13.4723 30.7793C11.4934 31.3565 9.38861 31.3391 7.41962 30.7293C8.40182 29.4196 9.67633 28.3576 11.1416 27.6276C12.6068 26.8977 14.2223 26.52 15.8593 26.5249Z" fill="#430D1A"/><path d="M24.1135 42.5696C23.0416 40.816 22.5056 38.7874 22.5715 36.7331C22.6374 34.6789 23.3023 32.6888 24.4845 31.0075C25.7311 32.7822 26.3999 34.8981 26.3999 37.0668C26.3999 39.2355 25.7311 41.3514 24.4845 43.1261L24.1135 42.5696Z" fill="#3E0F20"/><path d="M27.8852 20.4656V20.0328C28.0041 18.0407 28.686 16.1232 29.8516 14.5033C31.0173 12.8834 32.6188 11.6276 34.47 10.8821L34.9956 10.6656V11.0985C34.8847 13.0802 34.2165 14.9904 33.068 16.6093C31.9195 18.2281 30.3373 19.4898 28.5035 20.2492L27.8852 20.4656V20.6202V20.4656Z" fill="#006996"/><path d="M20.4037 20.2492C18.5023 19.4626 16.8736 18.1352 15.7196 16.4316C14.5655 14.728 13.9369 12.7232 13.9116 10.6656C15.9659 11.3654 17.7542 12.6821 19.0323 14.4361C20.3105 16.19 21.0161 18.2957 21.0529 20.4656L20.4346 20.2492H20.4037Z" fill="#9B1218"/><path d="M24.5154 32.615L14.159 39.7254L17.8997 27.8233L7.75964 20.0637H20.4038L24.5154 7.91415L28.5962 20.0637H41.2403L31.1312 27.8233L34.841 39.7254L24.5154 32.615Z" fill="white"/></svg>

<svg viewBox="0 0 49 48" fill="none" xmlns="http://www.w3.org/2000/svg"><path d="M35.026 10.542a10.542 10.542 0 1 1-21.083 0 10.542 10.542 0 0 1 21.083 0Z" fill="#A7A9AC"/><path d="M49 20.682a10.542 10.542 0 1 1-21.084 0 10.542 10.542 0 0 1 21.084 0Z" fill="#009FDF"/><path d="M21.084 20.682a10.542 10.542 0 1 1-21.084 0 10.542 10.542 0 0 1 21.084 0Z" fill="#ED1C24"/><path d="M26.432 37.098a10.557 10.557 0 1 1-21.115 0 10.557 10.557 0 0 1 21.115 0Z" fill="#4978BC"/><path d="M43.682 37.098a10.542 10.542 0 1 1-21.083 0 10.542 10.542 0 0 1 21.083 0Z" fill="#DA202C"/><path d="M33.079 26.525c3.462 0 6.523 1.638 8.44 4.204l-.742.186a10.573 10.573 0 0 1-10.759-3.926c.99-.31 2.01-.464 3.092-.464h-.031Z" fill="#001326"/><path d="M15.86 26.525c1.05 0 2.102.154 3.09.464l-.401.494a10.51 10.51 0 0 1-11.13 3.246 10.51 10.51 0 0 1 8.44-4.204Z" fill="#430D1A"/><path d="M24.113 42.57a10.543 10.543 0 0 1 .372-11.563 10.542 10.542 0 0 1 0 12.12l-.372-.557Z" fill="#3E0F20"/><path d="M27.885 20.466v-.433a10.543 10.543 0 0 1 6.585-9.15l.526-.217v.432a10.542 10.542 0 0 1-6.493 9.151l-.618.217v.154-.154Z" fill="#006996"/><path d="M20.404 20.25a10.51 10.51 0 0 1-6.492-9.584 10.542 10.542 0 0 1 7.14 9.8l-.617-.217h-.031Z" fill="#9B1218"/><path d="m24.515 32.615-10.356 7.11 3.74-11.902-10.14-7.76h12.645l4.111-12.149 4.081 12.15H41.24l-10.109 7.76 3.71 11.901-10.326-7.11Z" fill="white"/></svg>
